X: 9546
T: Dashing Young Aviator, The
R: slip jig
M: 9/8
K: Fmajor
|:C2D F2G A3|C2D F2A GFD|C2D F2G A2C|ABA GAF GFD:|
|:C2A ABG AFD|C2D F2G A3|C2A ABG AGF|GAF GFD C3:|

